svgs/thin/image-polaroid-user.svg

<svg xmlns="http://www.w3.org/2000/svg" viewBox="0 0 448 512"><!-- Font Awesome Pro 6.0.0-alpha2 by @fontawesome - https://fontawesome.com License - https://fontawesome.com/license (Commercial License) --><path d="M400 32H48C21.49 32 0 53.492 0 80V432C0 458.508 21.49 480 48 480H400C426.51 480 448 458.508 448 432V80C448 53.492 426.51 32 400 32ZM432 432C432 449.645 417.645 464 400 464H48C30.355 464 16 449.645 16 432V352H432V432ZM130.574 336C137.711 308.5 162.295 288 192 288H256C285.705 288 310.289 308.5 317.426 336H130.574ZM432 336H333.629C326.174 299.59 294.621 272 256 272H192C153.383 272 121.828 299.59 114.371 336H16V80C16 62.355 30.355 48 48 48H400C417.645 48 432 62.355 432 80V336ZM224 112C188.656 112 160 140.656 160 176S188.656 240 224 240C259.348 240 288 211.344 288 176S259.348 112 224 112ZM224 224C197.531 224 176 202.469 176 176S197.531 128 224 128S272 149.531 272 176S250.469 224 224 224Z"/></svg>

<svg xmlns="http://www.w3.org/2000/svg" viewBox="0 0 448 512"><!--! Font Awesome Pro 6.3.0 by @fontawesome - https://fontawesome.com License - https://fontawesome.com/license (Commercial License) Copyright 2023 Fonticons, Inc. --><path d="M400 32h-352C21.49 32 0 53.49 0 80v352C0 458.5 21.49 480 48 480h352c26.51 0 48-21.49 48-48v-352C448 53.49 426.5 32 400 32zM432 432c0 17.64-14.36 32-32 32h-352c-17.64 0-32-14.36-32-32V352h416V432zM130.6 336C137.7 308.5 162.3 288 192 288h64c29.71 0 54.29 20.5 61.43 48H130.6zM432 336h-98.37C326.2 299.6 294.6 272 256 272H192c-38.62 0-70.17 27.59-77.63 64H16v-256c0-17.64 14.36-32 32-32h352c17.64 0 32 14.36 32 32V336zM224 112c-35.34 0-64 28.66-64 64s28.66 64 64 64c35.35 0 64-28.66 64-64S259.3 112 224 112zM224 224C197.5 224 176 202.5 176 176S197.5 128 224 128s48 21.53 48 48S250.5 224 224 224z"/></svg>
